build/assets/img/svg/icon-arrow-6.svg

<svg width="118" height="99" viewBox="0 0 118 99" fill="none" xmlns="http://www.w3.org/2000/svg">
<path d="M87.8812 24.642L86.6768 26.1285C85.4895 25.0456 84.3021 23.9628 82.939 22.9608L84.1434 21.4743C85.4122 22.2868 86.6938 23.5591 87.8812 24.642ZM80.2299 18.3876L79.1198 20.0635C77.7567 19.0616 76.4879 18.2491 75.2192 17.4366L76.0592 15.6522C77.5037 16.3837 78.7725 17.1962 80.2299 18.3876ZM71.6313 13.2682L71.0613 15.1611C70.5213 14.9442 69.9812 14.7274 69.7111 14.619C68.7253 14.3747 67.9152 14.0494 66.9293 13.8051L67.2292 11.8039C68.2151 12.0482 69.3767 12.2115 70.2811 12.7261C70.5512 12.8346 71.0912 13.0514 71.6313 13.2682ZM62.2314 11.3128L62.3773 13.3414C60.8642 13.3401 59.4454 13.5282 58.121 13.9057L57.5294 11.8497C58.8538 11.4721 60.5426 11.3925 62.2314 11.3128ZM54.1605 15.4981C53.0247 16.2544 51.8889 17.0108 50.9417 18.1459L49.39 16.7652C50.3372 15.63 51.7302 14.5223 53.0417 13.685L54.1605 15.4981ZM48.9102 21.8767C48.5031 23.2287 48.0959 24.5807 48.0532 26.2305L46.0814 25.7419C46.2999 24.0111 46.5185 22.2803 47.1013 20.8473L48.9102 21.8767ZM48.0877 30.6392C48.1263 32.0186 48.435 33.5065 48.6623 35.2647L46.622 35.5064C46.3947 33.7481 45.9918 32.0709 45.9531 30.6914L48.0877 30.6392ZM49.6012 40.1881L49.9099 41.6759C50.2057 42.704 50.3258 43.813 50.7159 45.0304L48.6757 45.2721C48.3799 44.2441 48.2598 43.135 47.964 42.107L47.6553 40.6191L49.6012 40.1881ZM51.5606 49.7644C51.6935 51.3332 51.9208 53.0915 52.0537 54.6603L50.0949 54.6316C49.9619 53.0627 49.829 51.4939 49.696 49.9251L51.5606 49.7644ZM52.1011 59.5288C52.0583 61.1786 52.0156 62.8285 51.8785 64.2889L49.9068 63.8004C50.0439 62.3399 50.0866 60.6901 50.2237 59.2297L52.1011 59.5288ZM51.2101 69.0215C50.8973 70.563 50.5844 72.1044 50.2716 73.6458L48.3813 72.8868C48.6942 71.3454 49.1013 69.9934 49.4141 68.452L51.2101 69.0215ZM48.8874 78.2426C48.3045 79.6755 47.816 81.2979 47.2331 82.7309L45.4243 81.7016C46.0071 80.2686 46.59 78.8356 46.9971 77.4836L48.8874 78.2426ZM45.1202 86.7321C44.2673 88.0566 43.6844 89.4896 42.8315 90.8142L41.1041 89.5145C41.957 88.1899 42.6342 86.9463 43.3113 85.7027L45.1202 86.7321ZM40.1785 94.5985C39.6642 95.3013 39.1499 96.004 38.6356 96.7068L37.0839 95.3261C37.5982 94.6233 38.2068 94.1099 38.7211 93.4072L40.1785 94.5985Z" fill="black"/>
<path d="M88.2568 13.6949L86.216 13.9367L88.0129 24.0576L78.2289 24.374L78.3748 26.4034L90.3883 26.2242L88.2568 13.6949Z" fill="black"/>
</svg>

<svg width="118" height="99" fill="none" xmlns="http://www.w3.org/2000/svg"><path d="M87.881 24.642l-1.204 1.486c-1.188-1.082-2.375-2.165-3.738-3.167l1.204-1.487c1.27.813 2.55 2.085 3.738 3.168zm-7.651-6.254l-1.11 1.675c-1.363-1.001-2.632-1.814-3.9-2.626l.84-1.785c1.444.732 2.712 1.544 4.17 2.736zm-8.599-5.12l-.57 1.893-1.35-.542c-.986-.244-1.796-.57-2.782-.814l.3-2.001c.986.244 2.148.407 3.052.922l1.35.542zm-9.4-1.955l.146 2.028c-1.513 0-2.932.187-4.256.565l-.592-2.056c1.325-.378 3.014-.457 4.702-.537zm-8.07 4.185c-1.136.756-2.272 1.513-3.22 2.648l-1.551-1.38c.947-1.136 2.34-2.244 3.652-3.081l1.118 1.813zm-5.25 6.379c-.408 1.352-.815 2.704-.858 4.354l-1.972-.49c.219-1.73.438-3.46 1.02-4.894l1.81 1.03zm-.823 8.762c.038 1.38.347 2.868.574 4.626l-2.04.241c-.227-1.758-.63-3.435-.669-4.815l2.135-.052zm1.513 9.55l.309 1.487c.296 1.028.416 2.137.806 3.354l-2.04.242c-.296-1.028-.416-2.137-.712-3.165l-.309-1.488 1.946-.43zm1.96 9.575c.133 1.57.36 3.328.493 4.896l-1.96-.028-.398-4.707 1.865-.16zm.54 9.765c-.043 1.65-.085 3.3-.222 4.76l-1.972-.489c.137-1.46.18-3.11.317-4.57l1.877.299zm-.89 9.492l-.94 4.625-1.89-.76c.313-1.54.72-2.893 1.033-4.434l1.796.57zm-2.324 9.222c-.583 1.433-1.071 3.055-1.654 4.488l-1.809-1.03c.583-1.432 1.166-2.865 1.573-4.217l1.89.759zm-3.767 8.49c-.853 1.324-1.436 2.757-2.288 4.081l-1.728-1.3c.853-1.324 1.53-2.568 2.207-3.811l1.81 1.03zm-4.941 7.865c-.515.703-1.03 1.406-1.543 2.109l-1.552-1.38c.514-.704 1.123-1.217 1.637-1.92L40.18 94.6z" fill="#000"/><path d="M88.257 13.695l-2.041.242 1.797 10.12-9.784.317.146 2.03 12.013-.18-2.131-12.53z" fill="#000"/></svg>
